X:120
T: Kildoney Lasses
S: "Music of Ireland - The Big Session" (DJ Taylor)
Z: B.Black
L: 1/8
M: 4/4
R: reel
K: G
DGGF G2 BG|G2 BG AGEG|DGGF G2 Bd|gedB c4 :|
d2 gd edgd|d2 gd BGBc|d2 gd edef|gedB c2 Bc|
d2 gd edgd|d2 gd BGBd|c3 A BcBA|G2 (3Bcd gedB ||
